X:1
T:Title
%%score ( 1 2 ) { 3 | 4 }
L:1/8
Q:1/4=88
M:4/4
K:Db
V:1 treble nm="Grand Piano, Soprano"
V:2 treble 
V:3 bass nm="Choir Pad, The Wheat and the Tares"
V:4 bass 
V:1
 D[DE] [DF]2 [DF]>[DG] [DF][DE] | D[DE][DF][EG] [FA][GB][FA][DF] | %2
w: By~John~R.~Bryant * * * * * *||
 [DF][EG] [FA]2 [FA]>[FA] [GB][FA] | [DF][EG][FA][FA] [EG][DF] [CE]2 | %4
w: ||
 D[DE] [DF]2 [DF]>[EG] [DF][DE] | D[DE][DF][EG] [FA][GB][FA][_Fd] | %6
w: ||
 [_Fd][Fd][=Fc][FB] [FA][GB] [FA]2 | [CG][CE] D6 | [FA]2 [GB][GB] [GB][GB][GB][GB] | %9
w: |||
 [Bd][GB][FA][FA] [EA][EA] [FA]2 | [DF][DF][EG][CE] [CE][DF] [EG]2 | %11
w: ||
 [EG][EG][GB][DF] [DF][EG] [FA]2 | [FA][FA][GB][GB] [GB][GB] [GB]2 | %13
w: ||
 [Bd][GB][FA][FA] [EA][EA] [FA]2 | AA [Gc]2- [Gc][Gc] [GB]2 | z2 d6- | d4 z4 |] %17
w: ||||
V:2
 x8 | x8 | x8 | x8 | x8 | x8 | x8 | x8 | x8 | x8 | x8 | x8 | x8 | x8 | x8 | [GA]2 FF _FF =F2- | %16
 F4 z4 |] %17
V:3
 F,G, A,2 A,>B, A,G, | F,G,A,[K:treble]D DDDA, | A,A, D2 D>D DD | A,A,DD A,A, A,2 | %4
 F,G, A,2 A,>A, A,G, | F,G,A,[K:treble]D DDD=G, | =G,G,A,D DD D2 | A,G, F,6 | D2 DD DDDD | %9
 DDDD CC D2 | A,A,A,A, A,A, A,2 | A,A,A,A, A,A,[K:treble] D2 | DDDD DD D2 | DDDD CC D2 | %14
 DD E2- EE E2 | C2[K:bass] A,A, =G,G, A,2- | A,4 z4 |] %17
V:4
 D,D, D,2 D,>D, D,D, | D,D,D,D, D,D,D,D, | D,D, D,2 D,>D, D,D, | D,D,D,D, D,D, A,,2 | %4
 D,D, D,2 D,>D, D,D, | D,D,D,D, D,D,D,B,, | B,,B,,A,,A,, A,,A,, A,,2 | A,,A,, D,6 | %8
 D,2 G,G, G,G,G,G, | G,G,D,D, A,,A,, D,2 | D,D,A,,A,, A,,A,, A,,2 | A,,A,,D,D, D,D, D,2 | %12
 D,D,G,G, G,G, G,2 | G,G,D,D, A,,A,, D,2 | F,F, A,2- A,A, A,2 | A,2 D,6- | D,4 z4 |] %17

